public/avatar/body/125.svg

<svg xmlns:xlink="http://www.w3.org/1999/xlink" height="82" width="84.85" xmlns="http://www.w3.org/2000/svg"><g transform="translate(37.4 42.25)"><use height="38" transform="translate(-11.95 -17.45)" width="32.05" xlink:href="#a"/><use height="38.95" transform="translate(-12.45 -17.95)" width="33.05" xlink:href="#b"/><use height="23" transform="translate(-13.45 .05)" width="35.2" xlink:href="#c"/></g><defs><path d="M27.35 7.4q2.15 4.15 3.55 8.75 1.45 4.7 1.15 9.5-.35 4.95-4.2 8.1-3.8 3.2-8.75 4.05l-2.6.2q-3.6 0-7.05-1.15-4.65-1.6-7.1-5.5Q-.2 27.4.05 23q.2-4.4 2-9.3Q3.85 8.75 7 5.05 10.1 1.3 14.7.1l1.8-.1q1.9.05 3.7.8 4.75 2.05 7.15 6.6" fill="#c17745" fill-rule="evenodd" transform="translate(-.05)" id="d"/><path d="M27.35 7.4Q24.95 2.85 20.2.8 17.55-.3 14.7.1 10.1 1.3 7 5.05q-3.15 3.7-4.95 8.65-1.8 4.9-2 9.3-.25 4.4 2.3 8.35 2.45 3.9 7.1 5.5 4.65 1.55 9.65.95 4.95-.85 8.75-4.05 3.85-3.15 4.2-8.1.3-4.8-1.15-9.5-1.4-4.6-3.55-8.75Z" fill="none" stroke="#000" stroke-linecap="round" stroke-linejoin="round" transform="translate(.45 .5)" id="e"/><use height="38" width="32.05" xlink:href="#d" id="a"/><use height="38.95" width="33.05" xlink:href="#e" id="b"/><g id="c" fill-rule="evenodd"><path d="m18.4 14.05.55 1.05q.85 1.75-.45 3.25.5 3.65-3.55 4.3L13.7 21.4q-5.05 3.1-9.85.35h-.7q-6.25 3.1-12.7-1.25-4.35-2.95-1.2-7.45l-.1 1.65q-1.1 4.1 3.35 5.55l2.6.85 2.65.85-1.45-.6h.45l-.95-.45q.8-.3 1.55-.75Q.2 18.3 3.6 18.25l.65-.05h.05l.15.05 2.25 2.7-1.75.05q4.3 2.9 9.25-.65l.8 1.35 1.25-.4.9-.55q.95-.95.7-2.25l-.15-.6-1-3.45.2-.15q.25-.15.55-.25 1 2.05.4 4.3l.75-.95-.2-3.35m-4.25 6.2-2.75.35h-1.25q1.3-.85 1.4-2.5l.1-.95 1.25-.5 1.25 3.6" transform="translate(13.45 -.05)"/><path d="M19.2.65q-1.7.35-2.9 1.3-4.25 3.35-9.55 4.5 5.9-3.4 12.15-6.4l.3.6M6.55 6.55 4.3 10.4 2.15 6.7l-3.9-1.65L-10.9.7q1.35-.1 2.6.6Q-6.25 2.5-4 3.05q5.4 1.3 8.4 5.35.85-1.2 2.05-1.85h.1" fill="#945b37" transform="translate(13.45 -.05)"/><path d="M20.9 6.65q.35-1.9.05-3.85l-.25-.95-.45-.45-1.25.25Q13.85 5.2 7.7 6.9l-.65.1-2.15 4.05-.05.1-.2-.05q-.9-.15-1.65-.95L1.9 8l-.6-.9q-5.6-1.55-11-4.9l-1.25-.55L-12 1.6q-.75 1.55-.65 3.3l.1.95v.05l-.7-.5Q-14.1 1.9-11.4.8l.5-.1 9.15 4.35 3.9 1.65 2.15 3.7 2.25-3.85v-.1h.2q5.3-1.15 9.55-4.5Q17.5 1 19.2.65l1.7.2q1 1.55.85 3.35l-.15 1.55-.7.9" fill="#00232a" transform="translate(13.45 -.05)"/><path d="M8.55 7.55q4.65-.75 8.4-3.4l1.05-.8 3 .5-.3-2 .25.95q.3 1.95-.05 3.85l-.35 1.15.3-3.45q-.6.45-1.25.85-6.2 3.65-13.2 4.9l2.15-2.55m11.7-6.15-.8.25H19l1.25-.25m-32.8 4.45-.1-.95q-.1-1.75.65-3.3l-.55 2.25 3-.5L-4.5 6.3q-3.6-1.95-7.75-2.45l.9 1 2.3 2.05-1.2-.55-2.15-1.25-.15.75M1.9 8 3 10.15.75 9.9l-.1-.05-1.35-2.1-2.6-.9L1.9 8m2.95 3.15.05-.1v.05l-.05.05m-14.95.4L-11.4 9l7.2 2.75L-9 10.1l.65 1.5-1.6-.65-.15.6" fill="#dbecfe" transform="translate(13.45 -.05)"/><path d="m18.5 13-.1 1.05.2 3.35-.75.95q.6-2.25-.4-4.3l.6-.35.2-.5.25-.2m-29.25.05.1-.6 5.3 4 3.3 1.15 5.65.65q-3.4.05-6.25 1.9-.75.45-1.55.75l-3.75-2.1.35-2.5-.45-.4-.7-.7-1.15-1.1-.7.05-.25.55.1-1.65m15.2 5.2 2.7-.2 4.5-.9-.1.95q-.1 1.65-1.4 2.5h1.25l-4.7.35-2.25-2.7m-8.15 3.1 1.45.6-2.65-.85 1.2.25" fill="#211909" transform="translate(13.45 -.05)"/><path d="m-4.2 20.9.95.45h-.45l-1.2-.25-2.6-.85q-4.45-1.45-3.35-5.55l.25-.55.7-.05 1.15 1.1-1.6 2.45.65.7 1.65-2.45.45.4-.35 2.5 3.75 2.1m18.4-.55Q9.25 23.9 4.95 21l1.75-.05 4.7-.35 2.75-.35.1-.05-.05.15" fill="#5c4726" transform="translate(13.45 -.05)"/><path d="m18.85 11.55-.4 1.1.05-.95-2.65.95-.55-.35-3.9 1.3q1.6-2.55 4.45-1.95l.5.3 2.9-1.5-.4 1.1m-29 .15.05-.15.15-.6 1.6.65.55.25q6.15 2.65 13.05 2.6l4.05-.4-2.6.6q-8.75.85-16.85-2.95m28.4 1.5-.2.5-.6.35q-.3.1-.55.25l1.2-.95.15-.15" fill="#39525a" transform="translate(13.45 -.05)"/><path d="m18.45 12.65.05.35-.25.2-.15.15-.35-.5-1.25 1 .2.6 1 3.45-2.05-4.9.95 3.4q1 2.95-1.2 4.9l1.75-.55-.9.55-1.25.4-.8-1.35.05-.15-.1.05-1.25-3.6-.3-1.2-1.5.55q-8.15 2.8-16.45.45l-5.3-4 .05-.95.45.2q8.1 3.8 16.85 2.95l2.6-.6 2.1-.45 3.9-1.3.55.35 2.65-.95-.05.95m-14 5.6-.15-.05 2.85-.15-2.7.2m-.2-.05-.65.05-5.65-.65 6.3.6" fill="#ff3d2b" transform="translate(13.45 -.05)"/><path d="m16.7 14.45-.2-.6 1.25-1 .35.5-1.2.95-.2.15" fill="#892116" transform="translate(13.45 -.05)"/><path d="m20.7 1.85.3 2-3-.5-1.05.8q-3.75 2.65-8.4 3.4l.25-.3q6.25-1.4 11.2-5.6h-.55l.8-.25.45.45M6.4 10.1q7-1.25 13.2-4.9.65-.4 1.25-.85l-.3 3.45-.2.45q-7.45 3.5-15.7 4.3l-.65.2L.75 9.9l2.25.25q.75.8 1.65.95l.2.05.05-.05 1.05-.3.45-.7m-18.95-4.2v-.05l.15-.75 2.15 1.25-2-.5.65 3.05-.75-.25-.2-2.75m.55-4.3 1.05.05h-.5q5.8 4.4 12.75 5.45l.6.9-5.2-1.15-.9-.35-.3-.2-5.05-2.95-3 .5.55-2.25" fill="#3892ab" transform="translate(13.45 -.05)"/><path d="M19.45 1.65H20q-4.95 4.2-11.2 5.6l-.95.1-.8-.35.65-.1Q13.85 5.2 19 1.65h.45m-30.4 0 1.25.55q5.4 3.35 11 4.9-6.95-1.05-12.75-5.45h.5" fill="#4fd5f8" transform="translate(13.45 -.05)"/><path d="m20.35 8.25-1.5 3.3.4-1.1-2.9 1.5-.5-.3q-2.85-.6-4.45 1.95l-2.1.45-4.05.4q-6.9.05-13.05-2.6l-.55-.25-.65-1.5 4.8 1.65 3 .6 5.25.4H4h.05l-5.25-.4-3-.6L-11.4 9l-.2-.1-.65-3.05 2 .5 1.2.55Q-6.8 8.5-4 9.15l4.65.7.1.05L4 12.75l.65-.2q8.25-.8 15.7-4.3m-15.1 6.2-1.2-1.7 1.2 1.7" fill="#40a9c5" transform="translate(13.45 -.05)"/><path d="M8.55 7.55 6.4 10.1l-.45.7-1.05.3v-.05L7.05 7l.8.35.95-.1-.25.3m-11.85-.7 2.6.9 1.35 2.1-4.65-.7Q-6.8 8.5-9.05 6.9l-2.3-2.05-.9-1q4.15.5 7.75 2.45l.3.2.9.35" fill="#f4f9ff" transform="translate(13.45 -.05)"/><path d="m7.15 18.05-2.85.15h-.05l-6.3-.6-3.3-1.15Q2.95 18.8 11.1 16l1.5-.55.3 1.2-1.25.5-4.5.9m10 2.7-1.75.55q2.2-1.95 1.2-4.9l-.95-3.4 2.05 4.9.15.6q.25 1.3-.7 2.25" fill="#9d261a" transform="translate(13.45 -.05)"/><path d="m-8.75 15.2.7.7-1.65 2.45-.65-.7 1.6-2.45" fill="#e7d6ba" transform="translate(13.45 -.05)"/></g></defs></svg>

<?xml version="1.0" encoding="UTF-8" standalone="no"?>
<svg xmlns:xlink="http://www.w3.org/1999/xlink" height="82.0px" width="84.85px" xmlns="http://www.w3.org/2000/svg">
  <g transform="matrix(1.0, 0.0, 0.0, 1.0, 37.4, 42.25)">
    <use height="38.0" transform="matrix(1.0, 0.0, 0.0, 1.0, -11.95, -17.45)" width="32.05" xlink:href="#sprite0"/>
    <use height="38.95" transform="matrix(1.0, 0.0, 0.0, 1.0, -12.45, -17.95)" width="33.05" xlink:href="#sprite1"/>
    <use height="23.0" transform="matrix(1.0, 0.0, 0.0, 1.0, -13.45, 0.05)" width="35.2" xlink:href="#shape2"/>
  </g>
  <defs>
    <g id="sprite0" transform="matrix(1.0, 0.0, 0.0, 1.0, -0.05, 0.0)">
      <use height="38.0" transform="matrix(1.0, 0.0, 0.0, 1.0, 0.05, 0.0)" width="32.05" xlink:href="#shape0"/>
    </g>
    <g id="shape0" transform="matrix(1.0, 0.0, 0.0, 1.0, -0.05, 0.0)">
      <path d="M27.35 7.4 Q29.5 11.55 30.9 16.15 32.35 20.85 32.05 25.65 31.7 30.6 27.85 33.75 24.05 36.95 19.1 37.8 L16.5 38.0 Q12.9 38.0 9.45 36.85 4.8 35.25 2.35 31.35 -0.2 27.4 0.05 23.0 0.25 18.6 2.05 13.7 3.85 8.75 7.0 5.05 10.1 1.3 14.7 0.1 L16.5 0.0 Q18.4 0.05 20.2 0.8 24.95 2.85 27.35 7.4" fill="#c17745" fill-rule="evenodd" stroke="none"/>
    </g>
    <g id="sprite1" transform="matrix(1.0, 0.0, 0.0, 1.0, 0.45, 0.5)">
      <use height="38.95" transform="matrix(1.0, 0.0, 0.0, 1.0, -0.45, -0.5)" width="33.05" xlink:href="#shape1"/>
    </g>
    <g id="shape1" transform="matrix(1.0, 0.0, 0.0, 1.0, 0.45, 0.5)">
      <path d="M27.35 7.4 Q24.95 2.85 20.2 0.8 17.55 -0.3 14.7 0.1 10.1 1.3 7.0 5.05 3.85 8.75 2.05 13.7 0.25 18.6 0.05 23.0 -0.2 27.4 2.35 31.35 4.8 35.25 9.45 36.85 14.1 38.4 19.1 37.8 24.05 36.95 27.85 33.75 31.7 30.6 32.05 25.65 32.35 20.85 30.9 16.15 29.5 11.55 27.35 7.4 Z" fill="none" stroke="#000000" stroke-linecap="round" stroke-linejoin="round" stroke-width="1.0"/>
    </g>
    <g id="shape2" transform="matrix(1.0, 0.0, 0.0, 1.0, 13.45, -0.05)">
      <path d="M18.4 14.05 L18.95 15.1 Q19.8 16.85 18.5 18.35 19.0 22.0 14.95 22.65 L13.7 21.4 Q8.65 24.5 3.85 21.75 L3.15 21.75 Q-3.1 24.85 -9.55 20.5 -13.9 17.55 -10.75 13.05 L-10.85 14.7 Q-11.95 18.8 -7.5 20.25 L-4.9 21.1 -2.25 21.95 -3.7 21.35 -3.25 21.35 -4.2 20.9 Q-3.4 20.6 -2.65 20.15 0.2 18.3 3.6 18.25 L4.25 18.2 4.3 18.2 4.45 18.25 6.7 20.95 4.95 21.0 Q9.25 23.9 14.2 20.35 L15.0 21.7 16.25 21.3 17.15 20.75 Q18.1 19.8 17.85 18.5 L17.7 17.9 16.7 14.45 16.9 14.3 Q17.15 14.15 17.45 14.05 18.45 16.1 17.85 18.35 L18.6 17.4 18.4 14.05 M14.15 20.25 L11.4 20.6 10.15 20.6 Q11.45 19.75 11.55 18.1 L11.65 17.15 12.9 16.65 14.15 20.25" fill="#000000" fill-rule="evenodd" stroke="none"/>
      <path d="M19.2 0.65 Q17.5 1.0 16.3 1.95 12.05 5.3 6.75 6.45 12.65 3.05 18.9 0.05 L19.2 0.65 M6.55 6.55 L4.3 10.4 2.15 6.7 -1.75 5.05 -10.9 0.7 Q-9.55 0.6 -8.3 1.3 -6.25 2.5 -4.0 3.05 1.4 4.35 4.4 8.4 5.25 7.2 6.45 6.55 L6.55 6.55" fill="#945b37" fill-rule="evenodd" stroke="none"/>
      <path d="M20.9 6.65 Q21.25 4.75 20.95 2.8 L20.7 1.85 20.25 1.4 19.0 1.65 Q13.85 5.2 7.7 6.9 L7.05 7.0 4.9 11.05 4.85 11.15 4.65 11.1 Q3.75 10.95 3.0 10.15 L1.9 8.0 1.3 7.1 Q-4.3 5.55 -9.7 2.2 L-10.95 1.65 -12.0 1.6 Q-12.75 3.15 -12.65 4.9 L-12.55 5.85 -12.55 5.9 -13.25 5.4 Q-14.1 1.9 -11.4 0.8 L-10.9 0.7 -1.75 5.05 2.15 6.7 4.3 10.4 6.55 6.55 6.55 6.45 6.75 6.45 Q12.05 5.3 16.3 1.95 17.5 1.0 19.2 0.65 L20.9 0.85 Q21.9 2.4 21.75 4.2 L21.6 5.75 20.9 6.65" fill="#00232a" fill-rule="evenodd" stroke="none"/>
      <path d="M8.55 7.55 Q13.2 6.8 16.95 4.15 L18.0 3.35 21.0 3.85 20.7 1.85 20.95 2.8 Q21.25 4.75 20.9 6.65 L20.55 7.8 20.85 4.35 Q20.25 4.8 19.6 5.2 13.4 8.85 6.4 10.1 L8.55 7.55 M20.25 1.4 L19.45 1.65 19.0 1.65 20.25 1.4 M-12.55 5.85 L-12.65 4.9 Q-12.75 3.15 -12.0 1.6 L-12.55 3.85 -9.55 3.35 -4.5 6.3 Q-8.1 4.35 -12.25 3.85 L-11.35 4.85 -9.05 6.9 -10.25 6.35 -12.4 5.1 -12.55 5.85 M1.9 8.0 L3.0 10.15 0.75 9.9 0.65 9.85 -0.7 7.75 -3.3 6.85 1.9 8.0 M4.85 11.15 L4.9 11.05 4.9 11.1 4.85 11.15 M-10.1 11.55 L-11.4 9.0 -4.2 11.75 -9.0 10.1 -8.35 11.6 -9.95 10.95 -10.1 11.55" fill="#dbecfe" fill-rule="evenodd" stroke="none"/>
      <path d="M18.5 13.0 L18.4 14.05 18.6 17.4 17.85 18.35 Q18.45 16.1 17.45 14.05 L18.05 13.7 18.25 13.2 18.5 13.0 M-10.75 13.05 L-10.65 12.45 -5.35 16.45 -2.05 17.6 3.6 18.25 Q0.2 18.3 -2.65 20.15 -3.4 20.6 -4.2 20.9 L-7.95 18.8 -7.6 16.3 -8.05 15.9 -8.75 15.2 -9.9 14.1 -10.6 14.15 -10.85 14.7 -10.75 13.05 M4.45 18.25 L7.15 18.05 11.65 17.15 11.55 18.1 Q11.45 19.75 10.15 20.6 L11.4 20.6 6.7 20.95 4.45 18.25 M-3.7 21.35 L-2.25 21.95 -4.9 21.1 -3.7 21.35" fill="#211909" fill-rule="evenodd" stroke="none"/>
      <path d="M-4.2 20.9 L-3.25 21.35 -3.7 21.35 -4.9 21.1 -7.5 20.25 Q-11.95 18.8 -10.85 14.7 L-10.6 14.15 -9.9 14.1 -8.75 15.2 -10.35 17.65 -9.7 18.35 -8.05 15.9 -7.6 16.3 -7.95 18.8 -4.2 20.9 M14.2 20.35 Q9.25 23.9 4.95 21.0 L6.7 20.95 11.4 20.6 14.15 20.25 14.25 20.2 14.2 20.35" fill="#5c4726" fill-rule="evenodd" stroke="none"/>
      <path d="M18.85 11.55 L18.45 12.65 18.5 11.7 15.85 12.65 15.3 12.3 11.4 13.6 Q13.0 11.05 15.85 11.65 L16.35 11.95 19.25 10.45 18.85 11.55 M-10.15 11.7 L-10.1 11.55 -9.95 10.95 -8.35 11.6 -7.8 11.85 Q-1.65 14.5 5.25 14.45 L9.3 14.05 6.7 14.65 Q-2.05 15.5 -10.15 11.7 M18.25 13.2 L18.05 13.7 17.45 14.05 Q17.15 14.15 16.9 14.3 L18.1 13.35 18.25 13.2" fill="#39525a" fill-rule="evenodd" stroke="none"/>
      <path d="M18.45 12.65 L18.5 13.0 18.25 13.2 18.1 13.35 17.75 12.85 16.5 13.85 16.7 14.45 17.7 17.9 15.65 13.0 16.6 16.4 Q17.6 19.35 15.4 21.3 L17.15 20.75 16.25 21.3 15.0 21.7 14.2 20.35 14.25 20.2 14.15 20.25 12.9 16.65 12.6 15.45 11.1 16.0 Q2.95 18.8 -5.35 16.45 L-10.65 12.45 -10.6 11.5 -10.15 11.7 Q-2.05 15.5 6.7 14.65 L9.3 14.05 11.4 13.6 15.3 12.3 15.85 12.65 18.5 11.7 18.45 12.65 M4.45 18.25 L4.3 18.2 7.15 18.05 4.45 18.25 M4.25 18.2 L3.6 18.25 -2.05 17.6 4.25 18.2" fill="#ff3d2b" fill-rule="evenodd" stroke="none"/>
      <path d="M16.7 14.45 L16.5 13.85 17.75 12.85 18.1 13.35 16.9 14.3 16.7 14.45" fill="#892116" fill-rule="evenodd" stroke="none"/>
      <path d="M20.7 1.85 L21.0 3.85 18.0 3.35 16.95 4.15 Q13.2 6.8 8.55 7.55 L8.8 7.25 Q15.05 5.85 20.0 1.65 L19.45 1.65 20.25 1.4 20.7 1.85 M6.4 10.1 Q13.4 8.85 19.6 5.2 20.25 4.8 20.85 4.35 L20.55 7.8 20.35 8.25 Q12.9 11.75 4.65 12.55 L4.0 12.75 0.75 9.9 3.0 10.15 Q3.75 10.95 4.65 11.1 L4.85 11.15 4.9 11.1 5.95 10.8 6.4 10.1 M-12.55 5.9 L-12.55 5.85 -12.4 5.1 -10.25 6.35 -12.25 5.85 -11.6 8.9 -12.35 8.65 -12.55 5.9 M-12.0 1.6 L-10.95 1.65 -11.45 1.65 Q-5.65 6.05 1.3 7.1 L1.9 8.0 -3.3 6.85 -4.2 6.5 -4.5 6.3 -9.55 3.35 -12.55 3.85 -12.0 1.6" fill="#3892ab" fill-rule="evenodd" stroke="none"/>
      <path d="M19.45 1.65 L20.0 1.65 Q15.05 5.85 8.8 7.25 L7.85 7.35 7.05 7.0 7.7 6.9 Q13.85 5.2 19.0 1.65 L19.45 1.65 M-10.95 1.65 L-9.7 2.2 Q-4.3 5.55 1.3 7.1 -5.65 6.05 -11.45 1.65 L-10.95 1.65" fill="#4fd5f8" fill-rule="evenodd" stroke="none"/>
      <path d="M20.35 8.25 L18.85 11.55 19.25 10.45 16.35 11.95 15.85 11.65 Q13.0 11.05 11.4 13.6 L9.3 14.05 5.25 14.45 Q-1.65 14.5 -7.8 11.85 L-8.35 11.6 -9.0 10.1 -4.2 11.75 -1.2 12.35 4.05 12.75 4.0 12.75 4.05 12.75 -1.2 12.35 -4.2 11.75 -11.4 9.0 -11.6 8.9 -12.25 5.85 -10.25 6.35 -9.05 6.9 Q-6.8 8.5 -4.0 9.15 L0.65 9.85 0.75 9.9 4.0 12.75 4.65 12.55 Q12.9 11.75 20.35 8.25 M5.25 14.45 L4.05 12.75 5.25 14.45" fill="#40a9c5" fill-rule="evenodd" stroke="none"/>
      <path d="M8.55 7.55 L6.4 10.1 5.95 10.8 4.9 11.1 4.9 11.05 7.05 7.0 7.85 7.35 8.8 7.25 8.55 7.55 M-3.3 6.85 L-0.7 7.75 0.65 9.85 -4.0 9.15 Q-6.8 8.5 -9.05 6.9 L-11.35 4.85 -12.25 3.85 Q-8.1 4.35 -4.5 6.3 L-4.2 6.5 -3.3 6.85" fill="#f4f9ff" fill-rule="evenodd" stroke="none"/>
      <path d="M7.15 18.05 L4.3 18.2 4.25 18.2 -2.05 17.6 -5.35 16.45 Q2.95 18.8 11.1 16.0 L12.6 15.45 12.9 16.65 11.65 17.15 7.15 18.05 M17.15 20.75 L15.4 21.3 Q17.6 19.35 16.6 16.4 L15.65 13.0 17.7 17.9 17.85 18.5 Q18.1 19.8 17.15 20.75" fill="#9d261a" fill-rule="evenodd" stroke="none"/>
      <path d="M-8.75 15.2 L-8.05 15.9 -9.7 18.35 -10.35 17.65 -8.75 15.2" fill="#e7d6ba" fill-rule="evenodd" stroke="none"/>
    </g>
  </defs>
</svg>
